X: 21
T:Harvest Home
M:4/4
L:1/8
R:Hornpipe
K:D
A>F|"D"D>AF>A D>AF>A|"D"defe dcBA|"A"eAfA gAfA|"Em"edcB "A7"AGFE|
"D"DAFA DAFA|"D"defe dcBA|"A7"eAfA gece|"D"d2f2 d2:|
cd|:"A7"eA (3AAA "D"fA (3AAA|"A7"g2 f2 eA (3AAA|
"A"eAfA gAfA|"Em"(3efe (3dcB "A7"(3ABA (3GFE|"D"DAFA DAFA|
"D"defe dcBA|"A7"eAfA gece|"D"d2f2 d2:|
